build/assets/images/proyectos/logos/fichas/logo-primeriti-ltc.svg

<svg width="239" height="41" viewBox="0 0 239 41" fill="none" xmlns="http://www.w3.org/2000/svg">
<g clip-path="url(#clip0)">
<g clip-path="url(#clip1)">
<path d="M0 11.0409C0 17.4293 0 23.7176 0 29.9377C1.45955 29.9377 2.77359 29.9377 4.31498 29.9377C4.31498 28.1235 4.31498 26.5003 4.31498 24.7043C6.80667 24.7043 9.06647 24.7543 11.3263 24.6952C15.2866 24.5906 18.1102 21.8079 18.1966 17.9976C18.2784 14.2965 15.4139 11.2046 11.5263 11.0682C7.75242 10.9363 3.96942 11.0409 0 11.0409ZM115.168 25.6046C116.032 24.9862 116.75 24.5633 117.359 24.0177C119.001 22.5445 119.328 20.6121 118.801 18.6069C118.269 16.5699 116.873 14.9194 114.777 14.7466C111.426 14.4693 108.038 14.6739 104.587 14.6739C104.587 19.8619 104.587 24.8953 104.587 30.0105C105.738 30.0105 106.756 30.0105 107.993 30.0105C107.993 25.1635 107.993 20.4257 107.993 15.7333C112.126 15.0376 114.554 16.0334 115.204 18.7933C115.45 19.83 115.477 21.2441 114.954 22.0626C114.136 23.3357 112.753 24.2496 111.498 25.4181C113.663 26.9459 114.377 31.179 118.946 29.8786C118.223 29.0693 117.632 28.4145 117.046 27.7552C116.45 27.0778 115.863 26.4003 115.168 25.6046ZM30.8096 25.0226C34.3198 30.2106 35.07 30.6925 38.1892 29.7377C36.9979 28.3873 35.8112 27.0459 34.5426 25.6091C35.2565 25.1271 35.8476 24.8089 36.3477 24.3815C38.1301 22.8719 38.8485 20.9304 38.2119 18.6797C37.6163 16.5745 36.2159 14.883 33.997 14.7103C30.7141 14.4556 27.3904 14.6466 23.9802 14.6466C23.9802 19.8391 23.9802 24.8771 23.9802 30.0105C25.1215 30.0105 26.14 30.0105 27.404 30.0105C27.404 25.159 27.404 20.4211 27.404 15.7288C31.5326 15.0649 33.9015 16.1289 34.6836 18.8525C35.4247 21.4487 34.1107 23.5448 30.8096 25.0226ZM151.211 15.3968C151.215 15.174 151.225 14.9558 151.229 14.733C145.75 14.733 140.276 14.733 134.797 14.733C134.788 14.9376 134.778 15.1422 134.774 15.3514C136.861 15.3514 138.948 15.3514 141.244 15.3514C141.244 20.4939 141.244 25.2363 141.244 30.0059C142.495 30.0059 143.522 30.0059 144.786 30.0059C144.786 25.1499 144.786 20.412 144.786 15.3968C147.082 15.3968 149.147 15.3968 151.211 15.3968ZM48.1332 14.6693C46.9692 14.6693 45.9462 14.6693 44.8231 14.6693C44.8231 19.8437 44.8231 24.8816 44.8231 30.0105C45.9735 30.0105 46.992 30.0105 48.1332 30.0105C48.1332 24.9089 48.1332 19.9255 48.1332 14.6693ZM125.885 30.0059C127.131 30.0059 128.154 30.0059 129.268 30.0059C129.268 24.8498 129.268 19.8209 129.268 14.7148C128.081 14.7148 127.012 14.7148 125.885 14.7148C125.885 19.8619 125.885 24.8271 125.885 30.0059ZM160 30.0469C160 24.7952 160 19.7618 160 14.6966C158.836 14.6966 157.822 14.6966 156.772 14.6966C156.772 19.8982 156.772 24.9316 156.772 30.0469C157.872 30.0469 158.836 30.0469 160 30.0469Z" fill="black"/>
<path d="M115.168 25.6046C115.863 26.4003 116.45 27.0778 117.046 27.7507C117.632 28.41 118.223 29.0648 118.946 29.8741C114.377 31.17 113.663 26.9368 111.498 25.4136C112.753 24.2451 114.131 23.3312 114.954 22.058C115.481 21.2396 115.45 19.8255 115.204 18.7888C114.554 16.0289 112.121 15.0331 107.993 15.7288C107.993 20.4212 107.993 25.159 107.993 30.006C106.756 30.006 105.738 30.006 104.587 30.006C104.587 24.8907 104.587 19.8574 104.587 14.6694C108.038 14.6694 111.426 14.4648 114.777 14.7421C116.873 14.9149 118.269 16.5609 118.801 18.6024C119.324 20.6076 119.001 22.54 117.359 24.0132C116.75 24.5634 116.032 24.9862 115.168 25.6046Z" fill="white"/>
<path d="M30.8096 25.0226C34.1107 23.5449 35.4293 21.4533 34.6836 18.8525C33.9015 16.1289 31.5326 15.0649 27.404 15.7288C27.404 20.4212 27.404 25.159 27.404 30.0105C26.14 30.0105 25.1215 30.0105 23.9802 30.0105C23.9802 24.8771 23.9802 19.8346 23.9802 14.6466C27.3904 14.6466 30.7141 14.4557 33.997 14.7148C36.2159 14.8876 37.6163 16.5745 38.2119 18.6843C38.8485 20.935 38.1301 22.8765 36.3477 24.386C35.8476 24.8089 35.2565 25.1317 34.5426 25.6137C35.8112 27.0505 36.9979 28.3918 38.1892 29.7423C35.0655 30.688 34.3153 30.206 30.8096 25.0226Z" fill="white"/>
<path d="M151.211 15.3969C149.147 15.3969 147.082 15.3969 144.782 15.3969C144.782 20.4166 144.782 25.1545 144.782 30.006C143.517 30.006 142.49 30.006 141.24 30.006C141.24 25.2318 141.24 20.4894 141.24 15.3514C138.943 15.3514 136.856 15.3514 134.769 15.3514C134.778 15.1468 134.787 14.9422 134.792 14.733C140.271 14.733 145.745 14.733 151.224 14.733C151.224 14.9558 151.215 15.1786 151.211 15.3969Z" fill="white"/>
<path d="M48.1331 14.6693C48.1331 19.93 48.1331 24.9089 48.1331 30.0105C46.9919 30.0105 45.9734 30.0105 44.823 30.0105C44.823 24.8861 44.823 19.8437 44.823 14.6693C45.9461 14.6693 46.9646 14.6693 48.1331 14.6693Z" fill="white"/>
<path d="M125.885 30.006C125.885 24.8271 125.885 19.8619 125.885 14.7148C127.012 14.7148 128.081 14.7148 129.268 14.7148C129.268 19.821 129.268 24.8498 129.268 30.006C128.149 30.006 127.131 30.006 125.885 30.006Z" fill="white"/>
<path d="M160 30.0469C158.836 30.0469 157.872 30.0469 156.771 30.0469C156.771 24.9317 156.771 19.8937 156.771 14.6967C157.822 14.6967 158.836 14.6967 160 14.6967C160 19.7619 160 24.7953 160 30.0469Z" fill="white"/>
<path fill-rule="evenodd" clip-rule="evenodd" d="M3.64139 11.0209C2.44194 11.0309 1.22988 11.0409 -9.17967e-05 11.0409C-9.17967e-05 17.4247 -9.17967e-05 23.7131 -0.00463867 29.9377H4.31035V24.7043C5.11174 24.7043 5.88877 24.7094 6.6491 24.7145C8.25709 24.7252 9.79041 24.7353 11.3216 24.6952C15.2865 24.5906 18.1101 21.8079 18.192 17.9976C18.2738 14.2965 15.4138 11.2046 11.5262 11.0682C8.92172 10.9772 6.31286 10.9988 3.64139 11.0209ZM5.4685 23.6364C5.08561 23.6251 4.69902 23.6136 4.31035 23.6085V23.6084C4.31033 23.6084 4.31032 23.6084 4.3103 23.6084V12.3549C4.75028 12.341 5.19093 12.3144 5.6297 12.288C8.20176 12.1329 10.709 11.9818 12.6356 14.4056C13.4263 15.3994 13.8295 16.5632 13.8446 17.7508C13.8582 18.7702 13.5857 19.8063 13.0267 20.7667C11.256 23.8079 8.47637 23.7255 5.4685 23.6364Z" fill="white"/>
<path d="M55.7584 16.6518V17.3975H57.7181L54.0806 30.0833H56.7405C56.7405 30.0833 58.8411 22.1535 62.756 18.1887C62.756 18.1887 65.4159 15.9971 66.1161 18.3751C66.8164 20.7531 62.7105 30.4107 62.7105 30.4107H65.4614C65.4614 30.4107 67.512 22.8538 70.3584 19.7755C73.2047 16.6973 74.6506 16.9292 75.2099 18.2842C75.7692 19.6391 72.3181 27.2415 72.2226 28.5919C72.1271 29.9469 72.5954 31.4837 74.5097 31.4837C76.4239 31.4837 79.0338 28.1236 79.0338 28.1236V27.5189C79.0338 27.5189 75.9556 31.1564 74.7416 30.5516C73.5275 29.9469 78.1926 20.9895 77.8653 18.7025C77.5379 16.4154 75.951 15.6697 73.714 16.0425C70.9131 16.5109 68.3032 20.8941 68.3032 20.8941C68.3032 20.8941 69.3717 15.9425 66.5299 15.7652C62.1467 15.4833 59.4868 20.7577 59.4868 20.7577L60.7463 16.138L55.7584 16.6518Z" fill="white"/>
<path d="M99.4218 18.8706C99.9674 16.1743 98.7989 13.2916 94.061 13.2916C88.773 13.2916 83.5578 18.6797 82.9758 24.0859C82.2528 30.8244 85.5129 33.0705 90.078 33.0705C95.5842 33.0705 98.1942 27.7098 98.1942 27.7098H97.4712C97.4712 27.7098 96.0207 30.3197 93.2699 31.5519C90.5145 32.7841 87.9591 32.975 86.7497 30.7562C84.5763 26.7731 86.3859 22.931 86.3859 22.931C86.3859 22.931 98.1896 24.9589 99.4218 18.8706ZM91.1601 14.8148C92.8197 13.7918 95.4342 14.0919 96.0889 15.465C97.0211 17.4338 96.4527 20.2483 92.9743 21.8398C91.2602 22.6264 86.9588 21.6943 86.9588 21.6943C86.9588 21.6943 88.6957 16.338 91.1601 14.8148Z" fill="white"/>
</g>
<g clip-path="url(#clip2)">
<path d="M194.454 33.121V4.54761H186V39.652H191.678H194.454H201.038V33.121H194.454Z" fill="white"/>
<path d="M218.553 6.33842V4.60067H212.716V4.54761H204.262V4.59625H199.035V11.1272H204.262V39.6476H212.716V11.1272H216.169C216.315 10.0306 216.554 9.11971 216.908 8.48298C217.368 7.65611 217.938 6.94863 218.553 6.33842Z" fill="white"/>
<path d="M230.912 31.7149L227.817 33.2006C227.817 33.2006 226.464 25.6527 225.623 21.2C224.783 16.7473 223.948 10.8752 223.948 10.8752H226.981L227.684 3L223.943 3.19456C223.943 3.19456 220.91 4.00816 218.553 6.33843V11.1316H216.17C215.626 15.235 216.426 22.0136 217.748 27.5187C219.296 33.97 222.267 39.0064 223.103 39.9085C223.943 40.8105 229.041 40.9387 230.912 40.6823C232.782 40.4258 235.17 38.8119 235.17 38.8119L230.912 31.7149Z" fill="white"/>
</g>
</g>
<defs>
<clipPath id="clip0">
<rect width="238" height="40" fill="white" transform="translate(0.443359 0.769897)"/>
</clipPath>
<clipPath id="clip1">
<rect width="160" height="22.0751" fill="white" transform="translate(0 11)"/>
</clipPath>
<clipPath id="clip2">
<rect width="49.17" height="37.8017" fill="white" transform="translate(186 3)"/>
</clipPath>
</defs>
</svg>

<svg width="239" height="41" fill="none" xmlns="http://www.w3.org/2000/svg"><g clip-path="url(#clip0)"><g clip-path="url(#clip1)"><path d="M0 11.04v18.898h4.315v-5.234c2.492 0 4.751.05 7.011-.009 3.96-.104 6.784-2.887 6.87-6.697.082-3.702-2.782-6.793-6.67-6.93-3.774-.132-7.557-.027-11.526-.027zm115.168 14.565c.864-.619 1.582-1.042 2.191-1.587 1.642-1.474 1.969-3.406 1.442-5.411-.532-2.037-1.928-3.688-4.024-3.86-3.351-.278-6.739-.073-10.19-.073V30.01h3.406V15.732c4.133-.695 6.561.3 7.211 3.06.246 1.037.273 2.451-.25 3.27-.818 1.273-2.201 2.187-3.456 3.355 2.165 1.528 2.879 5.761 7.448 4.46-.723-.809-1.314-1.463-1.9-2.123-.596-.677-1.183-1.355-1.878-2.15zm-84.358-.582c3.51 5.188 4.26 5.67 7.38 4.715l-3.647-4.129c.714-.482 1.305-.8 1.805-1.228 1.782-1.51 2.5-3.45 1.864-5.701-.596-2.105-1.996-3.797-4.215-3.97-3.283-.254-6.607-.063-10.017-.063V30.01h3.424V15.729c4.129-.664 6.497.4 7.28 3.123.74 2.597-.573 4.693-3.874 6.17zm120.401-9.626c.004-.223.014-.441.018-.664h-16.432c-.009.205-.019.41-.023.618h6.47v14.655h3.542v-14.61h6.425zm-103.078-.728h-3.31V30.01h3.31V14.67zm77.752 15.337h3.383V14.715h-3.383v15.29zm34.115.04v-15.35h-3.228v15.35H160z" fill="#000"/><path d="M115.168 25.605c.695.795 1.282 1.473 1.878 2.146.586.659 1.177 1.314 1.9 2.123-4.569 1.296-5.283-2.937-7.448-4.46 1.255-1.169 2.633-2.083 3.456-3.356.527-.818.496-2.232.25-3.27-.65-2.76-3.083-3.755-7.211-3.06v14.278h-3.406V14.669c3.451 0 6.839-.204 10.19.073 2.096.173 3.492 1.819 4.024 3.86.523 2.006.2 3.938-1.442 5.411-.609.55-1.327.973-2.191 1.592zm-84.358-.582c3.3-1.478 4.62-3.57 3.874-6.17-.782-2.724-3.151-3.788-7.28-3.124V30.01H23.98V14.646c3.41 0 6.734-.191 10.017.068 2.219.173 3.62 1.86 4.215 3.97.636 2.25-.082 4.192-1.864 5.701-.5.423-1.091.746-1.805 1.228 1.268 1.436 2.455 2.778 3.646 4.128-3.123.946-3.874.464-7.38-4.72zm120.401-9.626h-6.429v14.609h-3.542V15.351h-6.471c.009-.204.018-.409.023-.618h16.432c0 .223-.009.446-.013.664zM48.133 14.67v15.34h-3.31V14.67h3.31zm77.752 15.336V14.715h3.383v15.291h-3.383zm34.115.041h-3.229v-15.35H160v15.35z" fill="#fff"/><path fill-rule="evenodd" clip-rule="evenodd" d="M3.641 11.02c-1.2.01-2.411.02-3.641.02 0 6.385 0 12.673-.005 18.898H4.31v-5.234c.802 0 1.579.005 2.34.01 1.607.011 3.14.021 4.672-.019 3.965-.104 6.788-2.887 6.87-6.697.082-3.702-2.778-6.793-6.666-6.93-2.604-.09-5.213-.07-7.885-.047zm1.827 12.616c-.382-.01-.769-.022-1.158-.027V12.354c.44-.014.88-.04 1.32-.067 2.572-.155 5.079-.306 7.006 2.118a5.45 5.45 0 011.209 3.345c.013 1.02-.26 2.055-.818 3.016-1.771 3.04-4.55 2.959-7.558 2.87z" fill="#fff"/><path d="M55.758 16.652v.745h1.96l-3.637 12.686h2.66s2.1-7.93 6.015-11.894c0 0 2.66-2.192 3.36.186.7 2.378-3.405 12.036-3.405 12.036h2.75s2.051-7.557 4.897-10.636c2.847-3.078 4.293-2.846 4.852-1.49.56 1.354-2.892 8.956-2.987 10.307-.096 1.355.372 2.892 2.287 2.892 1.914 0 4.524-3.36 4.524-3.36v-.605s-3.078 3.637-4.292 3.033c-1.215-.605 3.45-9.563 3.123-11.85-.327-2.287-1.914-3.032-4.151-2.66-2.8.469-5.41 4.852-5.41 4.852s1.068-4.951-1.774-5.129c-4.383-.282-7.043 4.993-7.043 4.993l1.26-4.62-4.989.514zm43.664 2.218c.545-2.696-.623-5.578-5.361-5.578-5.288 0-10.503 5.388-11.085 10.794-.723 6.738 2.537 8.985 7.102 8.985 5.506 0 8.116-5.361 8.116-5.361h-.723s-1.45 2.61-4.201 3.842c-2.755 1.232-5.31 1.423-6.52-.796-2.174-3.983-.364-7.825-.364-7.825s11.804 2.028 13.036-4.06zm-8.262-4.055c1.66-1.023 4.274-.723 4.929.65.932 1.969.364 4.783-3.115 6.375-1.714.786-6.015-.146-6.015-.146s1.737-5.356 4.201-6.88z" fill="#fff"/></g><g clip-path="url(#clip2)" fill="#fff"><path d="M194.454 33.121V4.548H186v35.104h15.038v-6.531h-6.584zm24.099-26.783V4.601h-5.837v-.053h-8.454v.048h-5.227v6.531h5.227v28.52h8.454v-28.52h3.453c.146-1.096.385-2.007.739-2.644a9.598 9.598 0 011.645-2.145z"/><path d="M230.912 31.715l-3.095 1.486s-1.353-7.548-2.194-12.001c-.84-4.453-1.675-10.325-1.675-10.325h3.033L227.684 3l-3.741.195s-3.033.813-5.39 3.143v4.794h-2.383c-.544 4.103.256 10.882 1.578 16.387 1.548 6.451 4.519 11.487 5.355 12.39.84.901 5.938 1.03 7.809.773 1.87-.256 4.258-1.87 4.258-1.87l-4.258-7.097z"/></g></g><defs><clipPath id="clip0"><path fill="#fff" transform="translate(.443 .77)" d="M0 0h238v40H0z"/></clipPath><clipPath id="clip1"><path fill="#fff" transform="translate(0 11)" d="M0 0h160v22.075H0z"/></clipPath><clipPath id="clip2"><path fill="#fff" transform="translate(186 3)" d="M0 0h49.17v37.802H0z"/></clipPath></defs></svg>
